X:1
T:Luther, SM
T:Luther, SM
T:Thomas Hastings (1784-1872)
T:Public Domain Courtesy of the Cyber Hymnal™
C:Thomas Hastings (1784-1872)
Z:Public Domain
Z:Courtesy of the Cyber Hymnal™
%%score ( 1 2 ) ( 3 4 )
L:1/8
Q:1/4=117
M:4/4
K:Eb
V:1 treble 
V:2 treble 
V:3 bass 
V:4 bass 
V:1
 [EB]4 [EB]2 [Ec]2 | (B3 A G2) [DF]2 | E4 [EG]4 | [CF]2 [B,E]2 [DA]2 [EG]2 | [DF]4 z2 (GA) | %5
 (B3 A G2) [Ec]2 | (B3 A G2) [EB]2 | (c2 B2 c2) [Ad]2 | [Ge]6 (BA) | [EG]3 [EG] [FA]2 [EG]2 | %10
 [EG]4 [DF]2 ([EG][FA]) | ([GB]3 [Ac]) [GB]2 [FA]2 | [EG]4 [DF]4 | E8 |] %14
V:2
 x8 | E6 x2 | E4 x4 | x8 | x6 E2 | E6 x2 | E6 x2 | E6 x2 | x6 F2 | x8 | x8 | x8 | x8 | E8 |] %14
V:3
 [E,G,]4 [E,G,]2 [A,,A,]2 | ([G,,B,]3 [A,,C] [B,,B,]2) [B,,A,]2 | [E,G,]4 [E,B,]4 | %3
 A,2 [G,B,]2 [F,B,]2 [E,B,]2 | [B,,B,]4 z2 (E,F,) | (G,3 F, E,2) [E,A,]2 | (G,3 F, E,2) [G,E]2 | %7
 E6 [F,B,]2 | [E,B,]6 z2 | E,,8 | B,,6 [E,B,]2 | [E,E]6 [A,,C]2 | [B,,B,]4 (B,2 A,2) | [E,G,]8 |] %14
V:4
 x8 | x8 | x8 | A,2 x6 | x6 E,2 | E,6 x2 | E,6 x2 | (A,2 G,2 A,2) x2 | x8 | E,,8 | B,,6 x2 | x8 | %12
 x4 B,,4 | x8 |] %14

